components/ui-node-icon/src/xlsFile/xlsFile.medium.svg

<svg xmlns="http://www.w3.org/2000/svg" width="24" height="24" fill="none" viewBox="0 0 24 24">
  <path
    fill="var(--tbl--colors--icons--clean--primary)"
    fill-rule="evenodd"
    d="M4 5C4 3.34315 5.34315 2 7 2H15L20 7V19C20 20.6569 18.6569 22 17 22H7C5.34315 22 4 20.6569 4 19V5ZM9 10L11.5 10V13H8V11C8 10.4477 8.44772 10 9 10ZM12.5 13V10L15 10C15.5523 10 16 10.4477 16 11V13H12.5ZM8 14H11.5V17H9C8.44772 17 8 16.5523 8 16V14ZM12.5 14V17H15C15.5523 17 16 16.5523 16 16V14H12.5ZM11.5 18H12.5H15C16.1046 18 17 17.1046 17 16V14V13V11C17 9.89543 16.1046 9 15 9H9C7.89543 9 7 9.89543 7 11V13V14V16C7 17.1046 7.89543 18 9 18H11.5Z"
    clip-rule="evenodd"
  />
  <path
    fill="#fff"
    fill-opacity=".5"
    d="M20 7L15 2V5C15 6.10457 15.8954 7 17 7H20Z"
  />
</svg>

<svg xmlns="http://www.w3.org/2000/svg" width="24" height="24" fill="none" viewBox="0 0 24 24">
  <path fill="var(--tbl--colors--icons--clean--primary)" fill-rule="evenodd" d="M4 5a3 3 0 0 1 3-3h8l5 5v12a3 3 0 0 1-3 3H7a3 3 0 0 1-3-3V5Zm5 5h2.5v3H8v-2a1 1 0 0 1 1-1Zm3.5 3v-3H15a1 1 0 0 1 1 1v2h-3.5ZM8 14h3.5v3H9a1 1 0 0 1-1-1v-2Zm4.5 0v3H15a1 1 0 0 0 1-1v-2h-3.5Zm-1 4H15a2 2 0 0 0 2-2v-5a2 2 0 0 0-2-2H9a2 2 0 0 0-2 2v5a2 2 0 0 0 2 2h2.5Z" clip-rule="evenodd"/>
  <path fill="#fff" fill-opacity=".5" d="m20 7-5-5v3a2 2 0 0 0 2 2h3Z"/>
</svg>
